!!!!SEGMENT: pl-sa--548-a-ix-28--001_anonim--keyboard-piece.krn
!!!cenid: 18xx:424
!!!COM: Anonim
!!!COM-rismid: pe30004985
!!!CDT:
!!!CNT:
!!!OTL: Keyboard piece
!!!PDT:
!!!AGN: Secular
!!!SMS-siglum: PL-SA
!!!SMS-shelfmark: 548/A IX 28
!!!SMS-shelfwork: 001 W
!!!SMS-variant:
!!!SMS-altvar:
!!!NIFC-rismid: 1001068947
!!!URL-scan: http://bc.bdsandomierz.pl/dlibra/publication/1440/edition/1408/content
!!!ONB-nifc: Str. 1-3 (s. 2)
**kern	**kern
*part1	*part1
*staff2	*staff1
*Ipiano	*Iempty
*I"Piano	*
*I'P-no	*
*clefF4	*clefG2
*k[]	*k[]
*C:	*C:
*M2/4	*M2/4
=1	=1
4ryy	4ryy
8ryy	8ryy
.	8qa/
8r	16g/LL
.	16f#X/JJ
=2	=2
8GL 8E 8C\	8g\L
8G 8E 8C\	8ee\
8G 8E 8C\	8b\
8GJ 8E 8C\	8cc\J
=3	=3
*rep	*
8GL 8E 8C\	8dd\L
8G 8E 8C\	8cc\J
8G 8E 8C\	8g/L
.	8qa/
8GJ 8E 8C\	16g/L
.	16f#X/JJ
*Xrep	*
=4	=4
*rep	*
8GL 8E 8C\	8g\L
8G 8E 8C\	8ee\
8G 8E 8C\	8b\
8GJ 8E 8C\	8cc\J
*Xrep	*
=5	=5
*rep	*
8GL 8E 8C\	8a/L
8G 8E 8C\	8f#X/J
8G 8E 8C\	8g/L
8GJ 8E 8C\	16a/L
.	16b/JJ
*Xrep	*
=6	=6
8AL 8F 8C\	8cc\L
8A 8F 8D\	8ffn\J
8A 8F 8D\	8cc\L
8AJ 8F 8D\	16a\L
.	16b\JJ
=7	=7
*rep	*
8AL 8F 8C\	8cc\L
8A 8F 8D\	8ff\J
8A 8F 8D\	8cc\L
8AJ 8F 8D\	8ccT\J
.	(16qqb/LL
.	16qqcc/JJ)
*Xrep	*
=8	=8
*rep	*
8AL 8F 8C\	16ff\LL
.	16ee\
8A 8F 8D\	16dd\
.	16cc\JJ
8A 8F 8D\	16dd\LL
.	16cc\
8AJ 8F 8D\	16b\
.	16a\JJ
*Xrep	*
!LO:LB:g=original	!LO:LB:g=original
=9	=9
!	!LO:TX:a:t=P:problem:brak caudy
.	8qb/
8GL 8E 8C\	8g/
8c\J	8gg 8ee 8cc\
8C\L	8r
.	8qa/
8GJ 8E 8C\	16g/LL
.	16f#X/JJ
=10	=10
8GL 8E 8C\	8g\L
8G 8E 8C\	8ee\
8G 8E 8C\	8b\
8GJ 8E 8C\	8cc\J
=11	=11
*rep	*
8GL 8E 8C\	8dd\L
8G 8E 8C\	8cc\J
!	!LO:N:vis=4
8G 8E 8C\	8g/
.	8qa/
8GJ 8E 8C\	16g/LL
.	16f#X/JJ
*Xrep	*
=12	=12
*rep	*
8GL 8E 8C\	8g\L
8G 8E 8C\	8ee\
8G 8E 8C\	8b\
8GJ 8E 8C\	8cc\J
*Xrep	*
=13	=13
*rep	*
8GL 8E 8C\	8a/L
8G 8E 8C\	8f#X/J
8G 8E 8C\	8g/L
8GJ 8E 8C\	16a/L
.	16b/JJ
*Xrep	*
=14	=14
8AL 8F 8C\	8cc\L
8AJ 8F 8D\	8ffn\J
8AL 8F 8D\	8cc\L
8AJ 8F 8D\	16a\L
.	16b\JJ
=15	=15
*rep	*
8AL 8F 8C\	8cc\L
8AJ 8F 8D\	8ff\J
8AL 8F 8D\	8cc\L
8AJ 8F 8D\	8cc\J
.	(16qqb/LL
.	16qqcc/JJ)
*Xrep	*
=16	=16
*rep	*
8AL 8F 8C\	16ff\LL
.	16ee\
8AJ 8F 8D\	16dd\
.	16cc\JJ
8AL 8F 8D\	16dd\LL
.	16cc\
8AJ 8F 8D\	16b\
.	16a\JJ
*Xrep	*
!LO:LB:g=original	!LO:LB:g=original
=17	=17
8GL 8E 8C\	8g/|
!	!LO:TUP:a:problem:klamra lukowa: global
8e\	24gg\LL
.	24ff\
.	24ee\JJ
8d\	24ff\LL
.	24ee\
.	24dd\JJ
8c\J	24ee\LL
.	24dd\
.	24cc\JJ
=18	=18
8G\L	24dd\LL
.	24cc\
.	24b\JJ
8e\	24gg\LL
.	24ff\
.	24ee\JJ
8d\	24ff\LL
.	24ee\
.	24dd\JJ
8c\J	24ee\LL
.	24dd\
.	24cc\JJ
=19	=19
8G\L	24dd\LL
.	24cc\
.	24b\JJ
8e\	24gg\LL
.	24ff\
.	24ee\JJ
8d\	24ff\LL
.	24ee\
.	24dd\JJ
8c\J	24ee\LL
.	24dd\
.	24cc\JJ
=20	=20
8G\L	24dd\LL
.	24cc\
.	24b\JJ
8e\	24gg\LL
.	24ff\
.	24ee\JJ
8d\	24ff\LL
.	24ee\
.	24dd\JJ
8c\J	24ee\LL
.	24dd\
.	24cc\JJ
!LO:LB:g=original	!LO:LB:g=original
=21	=21
*^	*
4.d\	4.G\	4.gg 4.b\
16E/LL	8C\	8cc\
16G/JJ	.	.
*v	*v	*
=22	=22
16ELL 16C/	4.cc\
16GG/	.
16E 16C/	.
16GG/JJ	.
16ELL 16C/	.
16GG/	.
16E 16C/	16cc\LL
16GG/JJ	16dd\JJ
=23	=23
16ELL 16C/	4ee\
16GG/	.
16E 16C/	.
16GG/JJ	.
16ELL 16C/	16ee\LL
16GG/	16ee\
16E 16C/	16ff\
16GG/JJ	16ee\JJ
=24	=24
16FLL 16BB/	16dd\LL
16GG/	16ee\
16F 16D 16BB/	16dd\
16GG/JJ	16ee\JJ
*rep	*
16FLL 16BB/	16dd\LL
16GG/	16cc\
16F 16D 16BB/	16b\
16GG/JJ	16cc\JJ
*Xrep	*
=25	=25
*rep	*
16FLL 16BB/	16dd\LL
16GG/	16g\
16F 16D 16BB/	16g\
16GG/JJ	16g\JJ
*Xrep	*
*rep	*
16FLL 16BB/	16g\LL
16GG/	16g\
.	8qb/
16F 16D 16BB/	16a\
16GG/JJ	16g\JJ
*Xrep	*
=26	=26
8E 8C\	16cc\LL
.	16g\
8r	16g\
.	16g\JJ
4G\	16ddLL 16b/
.	16g/
.	16g/
.	16g/JJ
!LO:LB:g=original	!LO:LB:g=original
=27	=27
8G 8E 8C\	16eeLL 16cc/
.	16g/
8r	16g/
.	16g/JJ
8G\	16ddLL 16b/
.	16g/
8r	16g/
.	16g/JJ
=28	=28
8G 8C\	16eeLL 16cc/
.	16g/
8r	16g/
.	16g/JJ
8G\	16ddLL 16b/
.	16g/
8r	16g/
.	16g/JJ
=29	=29
4G 4C\	4cc 4e/
4r	16r
.	16e/LL
.	16a/
.	16b/JJ
=30	=30
8cL 8A\	16cc\LL
.	16a\
8e 8c\	16ee\
.	16cc\JJ
8c 8A\	16aa\LL
.	16ee\
8eJ 8c\	16cc\
.	16ee\JJ
=31	=31
*rep	*
8cL 8A\	16a\LL
.	16cc\
8e 8c\	16ee\
.	16aa\JJ
8c 8A\	16a\LL
.	16cc\
8eJ 8c\	16ee\
.	16aa\JJ
*Xrep	*
=32	=32
8G#XL 8E\	16bb\LL
.	16ee\
8d 8G#\	16bb\
.	16ee\JJ
8G# 8E\	16bb\LL
.	16ee\
8d\J	16bb\
.	16ee\JJ
!LO:PB:g=original	!LO:PB:g=original
=33	=33
*rep	*
8G#XL 8E\	16ccc\LL
.	16aa\
8d 8G#\	16ee\
.	16cc\JJ
8G# 8E\	16a/LL
.	16e/
8d\J	16a/
.	16b/JJ
*Xrep	*
=34	=34
*rep	*
8G#XL 8E\	16cc\LL
.	16a\
8d 8G#\	16ee\
.	16cc\JJ
8G# 8E\	16aa\LL
.	16ee\
8d\J	16cc\
.	16ee\JJ
*Xrep	*
=35	=35
*rep	*
8G#XL 8E\	16a\LL
.	16cc\
8d 8G#\	16ee\
.	16aa\JJ
8G# 8E\	16a\LL
.	16cc\
8d\J	16ee\
.	16aa\JJ
*Xrep	*
=36	=36
8G#XL 8E\	16bb\LL
.	16ee\
8d 8G#\	16bb\
.	16ee\JJ
8G# 8E\	16bb\LL
.	16ee\
8dJ 8G#\	16bb\
.	16ee\JJ
=37	=37
8cL 8A\	16ccc\LL
.	16aa\
8e 8c\	16ee\
.	16cc\JJ
8c 8A\	16ee\LL
.	16aa\
8eJ 8c\	16bb\
.	16ccc\JJ
=38	=38
8BBnL 8FF 8DD/	16ddd\LL
.	16ccc\
8BB 8FF 8DD/	16bb\
.	16aa\JJ
8BB 8FF 8DD/	16ggn\LL
.	16aa\
8BBJ 8FF 8DD/	16ff\
.	16gg\JJ
!LO:LB:g=original	!LO:LB:g=original
=39	=39
!LO:N:vis=16	!
8BBL 8GG 8EE/	16ee\LL
.	16gg\
!LO:N:vis=16	!
8BB 8GG 8EE/	16ccc\
.	16ccc\JJ
!LO:N:vis=16	!
8BB 8GG 8EE/	16ccc\LL
.	16ccc\
!LO:N:vis=16	!
8BBJ 8GG 8EE/	16bb\
.	16ccc\JJ
=40	=40
8BB 8FF 8DD/	16ddd\LL
.	16bb\
8r	16gg'\
.	16gg'\JJ
8BB 8FF 8DD/	16ddd\LL
.	16bb\
8r	16gg'\
.	16gg'\JJ
=41	=41
8BB 8GG 8CC/	16eee\LL
.	16ccc\
8r	16gg'\
.	16gg'\JJ
8BB 8GG 8EE/	16eee\LL
.	16ccc\
8r	16gg\
.	16gg\JJ
=42	=42
8c 8A\	16ccc\LL
.	16ff#X\
8r	16ff#\
.	16ff#\JJ
8c 8A\	16ccc\LL
.	16ff#\
8r	16ff#\
.	16ff#\JJ
=43	=43
4G 4E\	4gg\
8D 8AA/	8.gL 8.B/
8r	.
.	16gJk 16B/
=44	=44
8D 8GG/	8r
!	!LO:N:vis=8.
8r	16fL 16B/
.	16fJk 16B/
8D 8GG/	8.fL 8.B/
8r	.
.	16fJk 16B/
=45	=45
!	!LO:N:vis=8
8E 8C 8GG/	8.eL 8.c/
8r	.
.	16eJk 16c/
4E 4C 4GG/	4cc 4e/
!LO:LB:g=original	!LO:LB:g=original
=46	=46
8D 8GG/	8.f#X/L
4D 4GG/	.
!	!LO:N:vis=16
.	32f#/LL
!	!LO:N:vis=16
.	32f#/JJJ
.	8f#/L
8r	8f#/J
=47	=47
8DL 8BB 8GG\	4.g/
16G\L	.
16G\JJ	.
!LO:N:vis=4	!
8G\	.
16ELL 16C\	8cc\
16G\JJ	.
=48	=48
16ELL 16C/	4.cc\
16GG/	.
16E 16C/	.
16GG/JJ	.
16ELL 16C/	.
16GG/	.
16E 16C/	16cc\LL
16GG/JJ	16dd\JJ
=49	=49
*rep	*
!	!LO:N:vis=4.
16ELL 16C/	4ee\
16GG/	.
16E 16C/	.
16GG/JJ	.
16ELL 16C/	16ee\LL
16GG/	16ee\
16E 16C/	16ff\
16GG/JJ	16ee\JJ
*Xrep	*
=50	=50
16FLL 16BB/	16dd\LL
16GG/	16ee\
16F 16BB/	16dd\
16GG/JJ	16ee\JJ
*rep	*
16FLL 16BB/	16dd\LL
16GG/	16cc\
16F 16BB/	16b\
16GG/JJ	16cc\JJ
*Xrep	*
=51	=51
*rep	*
16FLL 16BB/	16dd\LL
16GG/	16g\
16F 16BB/	16g\
16GG/JJ	16g\JJ
16FLL 16BB/	16g\LL
16GG/	16g\
.	8qb/
16F 16BB/	16a\
16GG/JJ	16g\JJ
*Xrep	*
=52	=52
8E 8C\	16cc\LL
.	16g\
8r	16g\
.	16g\JJ
8G\	16ddLL 16b\
.	16g\
8r	16g\
.	16g\JJ
!LO:LB:g=original	!LO:LB:g=original
=53	=53
8G 8C\	16ee\LL
.	16cc\
8r	16cc\
.	16cc\JJ
8d 8A\	16ff#XLL 16cc\
.	16dd\
8r	16dd\
.	16dd\JJ
=54	=54
8d 8G\	16ggLL 16b\
.	16dd\
8r	16dd\
.	16dd\JJ
8d 8A\	16ff#XLL 16cc\
.	16dd\
8r	16dd\
.	16dd\JJ
=55	=55
4d 4G\	8ggL 8b\
.	16gg\L
.	16gg\JJ
4r	8gg\
.	16g/LL
.	16g/JJ
=56	=56
2r	8g/L
.	8g/
.	8g/J
.	8qa/
.	16g/LL
.	16f#X/JJ
=57	=57
8GL 8E 8C\	8g\L
8G 8E 8C\	8dd\
8G 8E 8C\	8b\
8GJ 8E 8C\	8cc\J
=58	=58
*rep	*
8GL 8E 8C\	8dd\L
8G 8E 8C\	8cc\J
!	!LO:N:vis=4
8G 8E 8C\	8g/
.	8qa/
8GJ 8E 8C\	16g/LL
.	16f#X/JJ
*Xrep	*
=59	=59
*rep	*
8GL 8E 8C\	8g\L
8G 8E 8C\	8ee\J
8G 8E 8C\	8b\L
8GJ 8E 8C\	8cc\J
*Xrep	*
!LO:LB:g=original	!LO:LB:g=original
=60	=60
*rep	*
8GL 8E 8C\	8a/L
8G 8E 8C\	8f#X/J
8G 8E 8C\	8g/L
8GJ 8E 8C\	16a/L
.	16b/JJ
*Xrep	*
=61	=61
8AL 8F 8C\	8cc\L
8A 8F 8C\	8ff\J
8A 8F 8C\	8cc\L
8AJ 8F 8C\	16a\L
.	16b\JJ
=62	=62
*rep	*
8AL 8F 8C\	8cc\L
8A 8F 8C\	8ff\J
8A 8F 8C\	8cc\L
8AJ 8F 8C\	8ccT\J
.	16qqb/LL
.	16qqcc/JJ
*Xrep	*
=63	=63
*rep	*
8AL 8F 8C\	16ff\LL
.	16ee\
8A 8F 8C\	16dd\
.	16cc\JJ
8A 8F 8C\	16dd\LL
.	16cc\
8AJ 8F 8C\	16b\
.	16a\JJ
*Xrep	*
=64	=64
8GL 8E 8C\	8g/L
8GJ 8E 8C\	16g/L
.	16g/JJ
8G\L	8ddL 8b/
8G\J	16g/L
.	16g/JJ
=65	=65
8GL 8E 8C\	8eeL 8cc/
8G 8E 8C\	16g/L
.	16g/JJ
8G\	8ddL 8b/
8G\J	16g/L
.	16g/JJ
=66	=66
8C\L	16eeLL 16cc\
.	16g\
8G\	16ee 16cc\
.	16g\JJ
8E\	16eeLL 16cc\
.	16g\
8C\J	16ee 16cc\
.	16g\JJ
!LO:PB:g=original	!LO:PB:g=original
=67	=67
8G\L	8ddL 8a\
8d 8G\	8gg 8b 8g\
8d 8G\	8dd 8b\
8G\J	8ggJ 8b\
=68	=68
16ELL 16C\	4cc\
16G\	.
16E 16C\	.
16G\JJ	.
16ELL 16C\	16r
16G\	16cc\LL
16E 16C\	16dd\
16G\JJ	16ee\JJ
=69	=69
16FLL 16D 16C\	8ff\L
16G\	.
16F 16D 16C\	8g\J
16G\JJ	.
*rep	*
16FLL 16D 16C\	8g\L
16G\	.
16F 16D 16C\	16dd\L
16G\JJ	16ff\JJ
*Xrep	*
=70	=70
16ELL 16C\	8.aa\L
16G\	.
16E 16C\	.
16G\JJ	32gg\LL
.	32ee\JJJ
16ELL 16C\	8cc\L
16G\	.
16E 16C\	16dd\L
16G\JJ	16ee\JJ
=71	=71
*tremolo	*
16FLL 16D 16C\	16gg\LL
16G\	16g\
16F 16D 16C\	16f#X\
16G\	16g\JJ
16F 16D 16C\	16a\LL
16G\	16cc\
16F 16D 16C\	16b\
16G\JJ	16cc\JJ
=72	=72
16ELL 16C\	4cc\
16G\	.
16E 16C\	.
16G\	.
16E 16C\	16r
16G\	16cc\LL
16E 16C\	16dd\
16G\JJ	16ee\JJ
=73	=73
16FLL 16D 16C\	8ff\L
16G\	.
16F 16D 16C\	8g\J
16G\	.
16F 16D 16C\	8g\L
16G\	.
16F 16D 16C\	16dd\L
16G\JJ	16ff\JJ
!LO:LB:g=original	!LO:LB:g=original
=74	=74
16ELL 16C\	8.aa\L
16G\	.
16E 16C\	.
16G\	32gg\LL
.	32ee\JJJ
16E 16C\	8cc\L
16G\	.
16E 16C\	16dd\L
16G\JJ	16ee\JJ
=75	=75
16FLL 16D 16C\	16gg\LL
16G\	16g\
16F 16D 16C\	16f#X\
16G\	16g\JJ
16F 16D 16C\	16a\LL
16G\	16cc\
16F 16D 16C\	16b\
16G\JJ	16cc\JJ
=76	=76
8G 8E 8C\	16cc\LL
.	16gg\
8r	16ff#X\
.	16gg\JJ
8G 8F 8D 8C\	16ff#\LL
.	16gg\
8r	16aa\
.	16bb\JJ
*Xtremolo	*
=77	=77
8G 8E 8C\	16ccc\LL
.	16gg\
8r	16ff#X\
.	16gg\JJ
8G 8F 8D 8C\	16ff#\LL
.	16gg\
8r	16aa\
.	16bb\JJ
=78	=78
8G 8E 8C\	8ccc\
8r	8r
8G\	8gg 8dd 8b\
8r	8r
=79	=79
8G 8E 8C\	8gg 8ee 8cc\
8r	8r
8G\	8bb 8ff 8dd\
8r	8r
=80	=80
8G 8C\	8ccc 8ee\
8r	8r
8C/L	8c/L
8C/J	8c/J
=81	=81
2C;/	2c;/
==	==
*-	*-
!!!system-decoration: {s1,s2}
!!!ENC: Marta Lawrence
!!!END: 2020-11-23
!!!ENC:Anastazja Marusiak
!!!END:2020-06-15
!!!RDF**kern: | = vertical stroke
